resources/svg/money-dollar-box-fill.svg

<svg fill="currentColor" viewBox="0 0 24 24" xmlns="http://www.w3.org/2000/svg"><path d="M3.00488 3.00293H21.0049C21.5572 3.00293 22.0049 3.45064 22.0049 4.00293V20.0029C22.0049 20.5552 21.5572 21.0029 21.0049 21.0029H3.00488C2.4526 21.0029 2.00488 20.5552 2.00488 20.0029V4.00293C2.00488 3.45064 2.4526 3.00293 3.00488 3.00293ZM8.50488 14.0029V16.0029H11.0049V18.0029H13.0049V16.0029H14.0049C15.3856 16.0029 16.5049 14.8836 16.5049 13.5029C16.5049 12.1222 15.3856 11.0029 14.0049 11.0029H10.0049C9.72874 11.0029 9.50488 10.7791 9.50488 10.5029C9.50488 10.2268 9.72874 10.0029 10.0049 10.0029H15.5049V8.00293H13.0049V6.00293H11.0049V8.00293H10.0049C8.62417 8.00293 7.50488 9.12222 7.50488 10.5029C7.50488 11.8836 8.62417 13.0029 10.0049 13.0029H14.0049C14.281 13.0029 14.5049 13.2268 14.5049 13.5029C14.5049 13.7791 14.281 14.0029 14.0049 14.0029H8.50488Z"/></svg>

<svg xmlns="http://www.w3.org/2000/svg" viewBox="0 0 24 24" fill="currentColor">
    <g>
        <path fill="none" d="M0 0h24v24H0z"/>
        <path d="M3 3h18a1 1 0 0 1 1 1v16a1 1 0 0 1-1 1H3a1 1 0 0 1-1-1V4a1 1 0 0 1 1-1zm5.5 11v2H11v2h2v-2h1a2.5 2.5 0 1 0 0-5h-4a.5.5 0 1 1 0-1h5.5V8H13V6h-2v2h-1a2.5 2.5 0 0 0 0 5h4a.5.5 0 1 1 0 1H8.5z"/>
    </g>
</svg>
